resources/svg/hearts-fill.svg

<svg fill="currentColor" viewBox="0 0 24 24" xmlns="http://www.w3.org/2000/svg"><path d="M17.3631 11.0453C18.767 9.65157 21.0432 9.65157 22.4471 11.0453C23.851 12.439 23.851 14.6987 22.4471 16.0924L17 21.5L11.5529 16.0924C10.149 14.6987 10.149 12.439 11.5529 11.0453C12.9568 9.65157 15.233 9.65157 16.6369 11.0453L16.9996 11.4051L17.3631 11.0453ZM19.2426 4.75736C20.1831 5.69977 20.7461 6.87453 20.9318 8.09485C19.5993 7.84749 18.1932 8.08543 17.0001 8.808C14.8491 7.50516 12.0056 7.7777 10.1439 9.62594C8.01293 11.7414 7.95374 15.1405 9.96628 17.3273L10.1439 17.5117L12.565 19.916L10.9999 21.485L2.52138 12.993C0.417048 10.637 0.495706 7.01901 2.75736 4.75736C5.02157 2.49315 8.64519 2.41687 11.001 4.52853C13.35 2.42 16.98 2.49 19.2426 4.75736Z"/></svg>

<svg xmlns="http://www.w3.org/2000/svg" viewBox="0 0 24 24" fill="currentColor">
    <g>
        <path fill="none" d="M0 0H24V24H0z"/>
        <path d="M17.363 11.045c1.404-1.393 3.68-1.393 5.084 0 1.404 1.394 1.404 3.654 0 5.047L17 21.5l-5.447-5.408c-1.404-1.393-1.404-3.653 0-5.047 1.404-1.393 3.68-1.393 5.084 0l.363.36.363-.36zm1.88-6.288c.94.943 1.503 2.118 1.689 3.338-1.333-.248-2.739-.01-3.932.713-2.15-1.303-4.994-1.03-6.856.818-2.131 2.115-2.19 5.515-.178 7.701l.178.185 2.421 2.404L11 21.485 2.52 12.993C.417 10.637.496 7.019 2.757 4.757c2.265-2.264 5.888-2.34 8.244-.228 2.349-2.109 5.979-2.039 8.242.228z"/>
    </g>
</svg>
